ZUCCAL
CUT["Fischerliedchen"
    HAHL MI DEN SAHLHUND UT DEN STRANNE]
REG[Europa, Mitteleuropa, Deutschland, Ruegen]
KEY[Z1303  08  G 3/4]
MEL[    1_-5_-6-7  1_-5_-6-7  1_-5_1_  231_
    3_  543_3_  433_2_  321_1_  21-7_-7_
    1_-5_-6-7  1_-5_-6-7  1_1_2_  231_0_ //] >>
FCT[Handwerker -, Bauern - Lied]
